X: 22676
T: Lakes Of Sligo, The
R: polka
M: 2/4
K: Gmajor
|:D>E DE/F/|G>A GF|E>D EF/G/|A>G AB|
D>E DE/F/|GA B>A|GE DB|1 A2 G>E:|2 A2 G>A||
|:Bd G>A|Bd dc/B/|ce A>B|ce ed/c/|
Bd AB|GA B>A|GE DB|1 A2 G>A:|2 A2 G2||

